X:1
T:Come, Heavy Sleep
T:John Dowland
T:Arrangement by Gary Kerr
T:Please don't copy www.preludeandfugue.net
T:Please don't copy www.preludeandfugue.net
Z:Please don't copy
Z:www.preludeandfugue.net
%%score 1 2 3 4
L:1/8
Q:1/4=68
M:4/4
K:E
V:1 treble-8 nm="I"
V:2 treble-8 nm="II"
V:3 treble-8 nm="III"
V:4 treble-8 nm="IV"
V:1
"^Adagio" z2 g4 b2- | b2 f2 e4 | z agf g2 ^a2 | b4 z gab | c'4- c'b/a/ ga | b4 bbag | f4 z agf | %7
 e>c ef g3 f | ^e4 z =eg^a | b2 ga- aeff |[M:2/4] e4 |:[M:4/4] z g2 d/d/ dd g>d | ^ef>ga g4 | %13
 z eg^a b>B de | f>f ab c'2 z g | b4 b3 e | f3 f e4 :| %17
V:2
 e6 e2- | e2 d2 e4 | e3 d/c/ B2 e2 | d4 e3 d | c2 a3 g/f/ ef | g2 f2 e>d ce | d4 z cBA | %7
 G2 cc/c/ c2 ^B2 | c4 z B e>e | d2 ec- cGBB |[M:2/4] B4 |:[M:4/4] ^B3 B/B/ BB B>B | c c3 c4 | %13
 z B e>e d2 z B | c3 f ^e2 z =e- | eB e2 d2 B2 | B3 A G4 :| %17
V:3
 B6 GG | F2 B>A G4 | c>=d e2- eBcc | F4 GEFG | AG/F/ E2- E B2 A | G2 A2 B2 E2 | B4 z2 c2- | %7
 cB/A/ GF ED/C/ DD | C2 G2 G3 E | F B2 A/G/ FEED |[M:2/4] E4 |:[M:4/4] D3 G/G/ GG D>^E | %12
 ^EA>GF E4 | z GBc F3 G | A3 G/F/ G2 z B- | B G2 F/E/ F2 E2- | ED/C/ D2 E4 :| %17
V:4
 E,4 E4 | B,4 E,4 | A,>B, CD E2 C2 | B,4 E4 | A,B,CD E4 | E,2 F,F, G,2 A,2 | B,B,B,B, F,3 F, | %7
 C2 C2 C2 G,2 | C3 C E2 z/ E/D/C/ | B,2 EA,- A,CB,B, |[M:2/4] E,4 |:[M:4/4] G,3 G,/G,/ G,G, G,>G, | %12
 C F,3 C4 | E3 D/C/ B,2 z/ B,/A,/G,/ | F, F2 E/=D/ C2 E2 | E2 z/ E/D/C/ B,2 G,2 | B,2 B,2 E,4 :| %17

